X:710
T:Reel 710
L:1/8
M: 4/4
K: D Major
c|A2AGAGEF|GEEECEEC|A2ADAGAG|FAEDCDD2|A2AGAGEF|GEEEc2cE|DEFGA2cd|cAGEADD|c|dcAdd2ed|cdefgffd|d2Acd2ed|cAGEEDD2|dcAdd2ed|cdefg2fg|(3agfgefded|cAGEEDD|.abc